X:6026
T:Filles de Mon Pays, Les
T:Adieu les Filles de Mon Pays
R:March
C:Trad.
O:France; Morvan
Z:Paul Hardy's Session Tunebook 2022 (see www.paulhardy.net). Creative Commons cc by-nc-sa licenced.
M:4/4
L:1/4
Q:1/4=120
K:G
"G"G2 B>A|G2 B>A|GA Bc|"Bm"d4|B3d|"G"dB GA|1 "Em"B2"Am"c>B|"D7"A4:|[2 "D7"B2 A2|"G"G4||
|:"G"d2 g>f|"Em"e3d|"Am"c2 e2|"Bm"d4|"G"B2 B>d|dB GA|1 "Em"B2"Am"c>B|"D7"A4:|[2 "D7"B2 A2|"G"G4|]

